src/templates/img/chevron-right.svg

<?xml version="1.0" encoding="iso-8859-1"?>
<!-- Generator: Adobe Illustrator 18.1.1, SVG Export Plug-In . SVG Version: 6.00 Build 0)  -->
<svg version="1.1" id="Capa_1" xmlns="http://www.w3.org/2000/svg" xmlns:xlink="http://www.w3.org/1999/xlink"
	 viewBox="0 0 185.343 185.343">
<g>
	<path d="M51.707,185.343c-2.741,0-5.493-1.044-7.593-3.149c-4.194-4.194-4.194-10.981,0-15.175
		l74.352-74.347L44.114,18.32c-4.194-4.194-4.194-10.987,0-15.175c4.194-4.194,10.987-4.194,15.18,0l81.934,81.934
		c4.194,4.194,4.194,10.987,0,15.175l-81.934,81.939C57.201,184.293,54.454,185.343,51.707,185.343z"/>
</g>
</svg>

<svg width="10" height="10" viewBox="0 0 10 10" version="1.1" xmlns="http://www.w3.org/2000/svg" xmlns:xlink="http://www.w3.org/1999/xlink" xml:space="preserve" xmlns:serif="http://www.serif.com/" style="fill-rule:evenodd;clip-rule:evenodd;stroke-linejoin:round;stroke-miterlimit:2;">
    <g transform="matrix(0.053954,0,0,0.053954,2.6977e-05,4.38728e-21)">
        <path d="M51.707,185.343C48.966,185.343 46.214,184.299 44.114,182.194C39.92,178 39.92,171.213 44.114,167.019L118.466,92.672L44.114,18.32C39.92,14.126 39.92,7.333 44.114,3.145C48.308,-1.049 55.101,-1.049 59.294,3.145L141.228,85.079C145.422,89.273 145.422,96.066 141.228,100.254L59.294,182.193C57.201,184.293 54.454,185.343 51.707,185.343Z" style="fill-rule:nonzero;"/>
    </g>
</svg>
